; generated by Slic3r 1.2.9 on 2018-11-02 at 11:19:01

; external perimeters extrusion width = 0.40mm
; perimeters extrusion width = 0.67mm
; infill extrusion width = 0.67mm
; solid infill extrusion width = 0.67mm
; top infill extrusion width = 0.67mm

M107
M104 S200 ; set temperature
G28 ; home all axes
G1 Z5 F5000 ; lift nozzle

M109 S200 ; wait for temperature to be reached
G21 ; set units to millimeters
G90 ; use absolute coordinates
M82 ; use absolute distances for extrusion
G92 E0
G1 Z0.200 F6000.000
G1 E-2.00000 F4800.00000
G92 E0
G1 X144.835 Y145.654 F6000.000
G1 E2.00000 F4800.00000
G1 X146.056 Y144.552 E2.04785 F1800.000
G1 X149.285 Y142.206 E2.16399
G1 X150.710 Y141.385 E2.21184
G1 X151.882 Y140.867 E2.24912
G1 X152.627 Y140.581 E2.27234
G1 X153.825 Y140.192 E2.30900
G1 X154.616 Y139.978 E2.33284
G1 X155.869 Y139.709 E2.37012
G1 X157.504 Y139.535 E2.41797
G1 X161.496 Y139.535 E2.53411
G1 X163.131 Y139.709 E2.58196
G1 X164.384 Y139.978 E2.61924 F1800.000
G1 X165.175 Y140.192 E2.64308
G1 X166.373 Y140.581 E2.67974
G1 X167.118 Y140.867 E2.70296
G1 X168.290 Y141.385 E2.74024
G1 X169.715 Y142.206 E2.78809
G1 X172.944 Y144.552 E2.90423
G1 X173.846 Y145.318 E2.93866
G1 X204.829 Y175.998 E4.20739
G1 X206.003 Y177.287 E4.25814
G1 X206.505 Y177.908 E4.28136
G1 X207.258 Y178.944 E4.31864
G1 X207.693 Y179.613 E4.34186
G1 X208.336 Y180.721 E4.37914
G1 X209.007 Y182.223 E4.42699
G1 X210.240 Y186.019 E4.54313
G1 X210.558 Y187.429 E4.58520
G1 X210.680 Y188.462 E4.61546
G1 X210.750 Y189.500 E4.64572
G1 X210.766 Y190.539 E4.67597
G1 X210.730 Y191.578 E4.70623
G1 X210.639 Y192.614 E4.73649
G1 X210.557 Y193.250 E4.75515
G1 X210.240 Y194.661 E4.79720
G1 X209.007 Y198.457 E4.91335
G1 X208.336 Y199.958 E4.96120
G1 X207.693 Y201.066 E4.99848
G1 X207.258 Y201.735 E5.02170
G1 X206.505 Y202.772 E5.05898
G1 X206.003 Y203.392 E5.08219
G1 X205.148 Y204.346 E5.11947
G1 X203.927 Y205.448 E5.16732
G1 X200.698 Y207.794 E5.28347
G1 X199.273 Y208.615 E5.33132
G1 X198.102 Y209.133 E5.36860
G1 X197.356 Y209.419 E5.39181
G1 X196.138 Y209.815 E5.42910
G1 X195.367 Y210.022 E5.45231
G1 X194.115 Y210.291 E5.48959
G1 X192.479 Y210.465 E5.53744
G1 X157.504 Y210.465 E6.55513
G1 X155.869 Y210.291 E6.60298
G1 X154.616 Y210.022 E6.64028
G1 X153.846 Y209.815 E6.66348
G1 X152.627 Y209.419 E6.70076
G1 X151.882 Y209.133 E6.72398
G1 X150.710 Y208.615 E6.76126
G1 X149.285 Y207.794 E6.80911
G1 X146.056 Y205.448 E6.92525
G1 X144.835 Y204.346 E6.97310
G1 X143.980 Y203.392 E7.01038
G1 X143.479 Y202.772 E7.03360
G1 X142.726 Y201.735 E7.07088
G1 X142.290 Y201.066 E7.09410
G1 X141.647 Y199.958 E7.13138
G1 X140.977 Y198.457 E7.17923
G1 X139.743 Y194.661 E7.29537
G1 X139.403 Y193.052 E7.34321
G1 X139.272 Y191.777 E7.38050
G1 X139.231 Y190.980 E7.40372
G1 X139.231 Y159.020 E8.33369
G1 X139.272 Y158.223 E8.35691
G1 X139.403 Y156.948 E8.39419
G1 X139.743 Y155.339 E8.44204
G1 X140.977 Y151.543 E8.55818
G1 X141.647 Y150.042 E8.60603
G1 X142.290 Y148.933 E8.64332
G1 X142.726 Y148.265 E8.66653
G1 X143.479 Y147.228 E8.70381
G1 X143.980 Y146.608 E8.72703
G1 X144.795 Y145.698 E8.76256
G1 X145.101 Y145.892 F6000.000
G1 X146.266 Y144.841 E8.80822 F1800.000
G1 X149.495 Y142.495 E8.92436
G1 X150.855 Y141.712 E8.97002
G1 X152.027 Y141.193 E9.00730
G1 X152.738 Y140.921 E9.02945
G1 X153.936 Y140.532 E9.06611
G1 X154.691 Y140.327 E9.08888
G1 X155.944 Y140.058 E9.12616
G1 X157.504 Y139.892 E9.17182
G1 X161.496 Y139.892 E9.28796
G1 X163.056 Y140.058 E9.33361
G1 X164.309 Y140.327 E9.37089 F1800.000
G1 X165.064 Y140.532 E9.39367
G1 X166.262 Y140.921 E9.43033
G1 X166.973 Y141.193 E9.45248
G1 X168.145 Y141.712 E9.48976
G1 X169.505 Y142.495 E9.53542
G1 X172.734 Y144.841 E9.65156
G1 X173.594 Y145.572 E9.68441
G1 X204.578 Y176.251 E10.95314
G1 X205.738 Y177.525 E11.00327
G1 X206.216 Y178.117 E11.02543
G1 X206.969 Y179.154 E11.06271
G1 X207.385 Y179.792 E11.08486
G1 X208.028 Y180.900 E11.12214
G1 X208.667 Y182.333 E11.16779
G1 X209.901 Y186.129 E11.28394
G1 X210.203 Y187.475 E11.32408
G1 X210.324 Y188.489 E11.35380
G1 X210.393 Y189.509 E11.38353
G1 X210.409 Y190.530 E11.41325
G1 X210.374 Y191.551 E11.44298
G1 X210.285 Y192.569 E11.47270
G1 X210.203 Y193.205 E11.49136
G1 X209.901 Y194.550 E11.53149
G1 X208.667 Y198.346 E11.64763
G1 X208.028 Y199.779 E11.69329
G1 X207.385 Y200.887 E11.73057
G1 X206.969 Y201.525 E11.75272
G1 X206.216 Y202.562 E11.79001
G1 X205.738 Y203.154 E11.81215
G1 X204.882 Y204.108 E11.84943
G1 X203.718 Y205.159 E11.89509
G1 X200.488 Y207.505 E12.01123
G1 X199.129 Y208.288 E12.05689
G1 X197.957 Y208.807 E12.09417
G1 X197.246 Y209.079 E12.11632
G1 X196.027 Y209.475 E12.15361
G1 X195.292 Y209.673 E12.17576
G1 X194.040 Y209.942 E12.21304
G1 X192.479 Y210.108 E12.25869
G1 X157.504 Y210.108 E13.27638
G1 X155.944 Y209.942 E13.32203
G1 X154.691 Y209.673 E13.35933
G1 X153.956 Y209.475 E13.38147
G1 X152.738 Y209.079 E13.41875
G1 X152.027 Y208.807 E13.44090
G1 X150.855 Y208.288 E13.47818
G1 X149.495 Y207.505 E13.52384
G1 X146.266 Y205.159 E13.63998
G1 X145.101 Y204.108 E13.68563
G1 X144.246 Y203.154 E13.72291
G1 X143.767 Y202.562 E13.74507
G1 X143.014 Y201.525 E13.78235
G1 X142.599 Y200.887 E13.80450
G1 X141.956 Y199.779 E13.84178
G1 X141.316 Y198.346 E13.88744
G1 X140.083 Y194.550 E14.00358
G1 X139.758 Y193.015 E14.04922
G1 X139.627 Y191.741 E14.08652
G1 X139.588 Y190.980 E14.10867
G1 X139.588 Y159.020 E15.03864
G1 X139.627 Y158.259 E15.06079
G1 X139.758 Y156.985 E15.09808
G1 X140.083 Y155.450 E15.14373
G1 X141.316 Y151.654 E15.25987
G1 X141.956 Y150.221 E15.30553
G1 X142.599 Y149.113 E15.34281
G1 X143.014 Y148.475 E15.36496
G1 X143.767 Y147.438 E15.40224
G1 X144.246 Y146.846 E15.42439
G1 X145.061 Y145.937 E15.45993
G1 X145.367 Y146.130 F6000.000
G1 X146.476 Y145.130 E15.50339 F1800.000
G1 X149.705 Y142.784 E15.61953
G1 X151.000 Y142.038 E15.66299
G1 X152.171 Y141.520 E15.70027
G1 X152.848 Y141.261 E15.72136
G1 X154.046 Y140.871 E15.75802
G1 X154.766 Y140.676 E15.77973
G1 X156.019 Y140.407 E15.81701
G1 X157.504 Y140.249 E15.86047
G1 X161.496 Y140.249 E15.97661
G1 X162.981 Y140.407 E16.02007
G1 X164.234 Y140.676 E16.05735 F1800.000
G1 X164.933 Y140.865 E16.07844
G1 X166.152 Y141.261 E16.11572
G1 X166.829 Y141.520 E16.13681
G1 X168.000 Y142.038 E16.17409
G1 X169.295 Y142.784 E16.21755
G1 X172.524 Y145.130 E16.33369
G1 X173.343 Y145.826 E16.36497
G1 X204.327 Y176.505 E17.63370
G1 X205.472 Y177.764 E17.68321
G1 X205.927 Y178.327 E17.70430
G1 X206.680 Y179.364 E17.74158
G1 X207.076 Y179.971 E17.76267
G1 X207.719 Y181.079 E17.79995
G1 X208.328 Y182.443 E17.84341
G1 X209.561 Y186.239 E17.95955
G1 X209.849 Y187.521 E17.99776
G1 X209.968 Y188.517 E18.02695
G1 X210.036 Y189.518 E18.05615
G1 X210.052 Y190.521 E18.08534
G1 X210.017 Y191.524 E18.11453
G1 X209.931 Y192.523 E18.14372
G1 X209.849 Y193.159 E18.16238
G1 X209.561 Y194.440 E18.20058
G1 X208.328 Y198.236 E18.31672
G1 X207.719 Y199.600 E18.36018
G1 X207.076 Y200.708 E18.39746
G1 X206.680 Y201.315 E18.41855
G1 X205.927 Y202.352 E18.45584
G1 X205.472 Y202.916 E18.47692
G1 X204.617 Y203.870 E18.51420
G1 X203.508 Y204.870 E18.55766
G1 X200.278 Y207.216 E18.67380
G1 X198.984 Y207.962 E18.71727
G1 X197.812 Y208.480 E18.75454
G1 X197.136 Y208.739 E18.77563
G1 X195.917 Y209.135 E18.81292
G1 X195.217 Y209.324 E18.83400
G1 X193.965 Y209.593 E18.87128
G1 X192.479 Y209.751 E18.91474
G1 X157.504 Y209.751 E19.93243
G1 X156.019 Y209.593 E19.97589
G1 X154.766 Y209.324 E20.01319
G1 X154.066 Y209.135 E20.03426
G1 X152.848 Y208.739 E20.07154
G1 X152.171 Y208.480 E20.09263
G1 X151.000 Y207.962 E20.12991
G1 X149.705 Y207.216 E20.17337
G1 X146.476 Y204.870 E20.28951
G1 X145.367 Y203.870 E20.33297
G1 X144.512 Y202.916 E20.37025
G1 X144.056 Y202.352 E20.39134
G1 X143.303 Y201.315 E20.42862
G1 X142.908 Y200.708 E20.44971
G1 X142.265 Y199.600 E20.48699
G1 X141.656 Y198.236 E20.53045
G1 X140.422 Y194.440 E20.64659
G1 X140.114 Y192.979 E20.69004
G1 X139.982 Y191.704 E20.72733
G1 X139.945 Y190.980 E20.74842
G1 X139.945 Y159.020 E21.67839
G1 X139.982 Y158.296 E21.69948
G1 X140.113 Y157.021 E21.73676
G1 X140.422 Y155.560 E21.78022
G1 X141.656 Y151.764 E21.89636
G1 X142.265 Y150.400 E21.93983
G1 X142.908 Y149.292 E21.97711
G1 X143.303 Y148.685 E21.99819
G1 X144.056 Y147.648 E22.03547
G1 X144.512 Y147.084 E22.05656
G1 X145.327 Y146.175 E22.09210
G1 X145.633 Y146.369 F6000.000
G1 X146.686 Y145.419 E22.13336 F1800.000
G1 X149.915 Y143.072 E22.24951
G1 X151.144 Y142.365 E22.29077
G1 X152.316 Y141.846 E22.32805
G1 X152.958 Y141.600 E22.34808
G1 X154.156 Y141.211 E22.38473
G1 X154.841 Y141.025 E22.40538
G1 X156.094 Y140.756 E22.44266
G1 X157.504 Y140.607 E22.48392
G1 X161.496 Y140.607 E22.60007
G1 X162.906 Y140.756 E22.64133
G1 X164.159 Y141.025 E22.67861 F1800.000
G1 X164.843 Y141.211 E22.69926
G1 X166.042 Y141.600 E22.73592
G1 X166.684 Y141.846 E22.75594
G1 X167.856 Y142.365 E22.79322
G1 X169.085 Y143.072 E22.83449
G1 X172.314 Y145.419 E22.95063
G1 X173.092 Y146.079 E22.98032
G1 X204.075 Y176.759 E24.24905
G1 X205.206 Y178.002 E24.29795
G1 X205.638 Y178.537 E24.31797
G1 X206.391 Y179.574 E24.35525
G1 X206.767 Y180.150 E24.37528
G1 X207.410 Y181.259 E24.41255
G1 X207.988 Y182.554 E24.45382
G1 X209.222 Y186.350 E24.56996
G1 X209.495 Y187.566 E24.60625
G1 X209.612 Y188.544 E24.63491
G1 X209.679 Y189.527 E24.66357
G1 X209.696 Y190.512 E24.69222
G1 X209.661 Y191.496 E24.72088
G1 X209.577 Y192.477 E24.74954
G1 X209.495 Y193.113 E24.76820
G1 X209.222 Y194.329 E24.80447
G1 X207.988 Y198.126 E24.92062
G1 X207.410 Y199.421 E24.96188
G1 X206.767 Y200.529 E24.99916
G1 X206.391 Y201.106 E25.01918
G1 X205.638 Y202.142 E25.05647
G1 X205.206 Y202.677 E25.07649
G1 X204.351 Y203.631 E25.11377
G1 X203.298 Y204.581 E25.15503
G1 X200.069 Y206.928 E25.27118
G1 X198.840 Y207.635 E25.31244
G1 X197.668 Y208.154 E25.34972
G1 X197.025 Y208.400 E25.36975
G1 X195.807 Y208.796 E25.40703
G1 X195.142 Y208.975 E25.42705
G1 X193.890 Y209.244 E25.46433
G1 X192.479 Y209.393 E25.50560
G1 X157.504 Y209.393 E26.52328
G1 X156.094 Y209.244 E26.56455
G1 X154.841 Y208.974 E26.60184
G1 X154.177 Y208.796 E26.62185
G1 X152.958 Y208.400 E26.65913
G1 X152.316 Y208.154 E26.67916
G1 X151.144 Y207.635 E26.71644
G1 X149.915 Y206.928 E26.75770
G1 X146.686 Y204.581 E26.87385
G1 X145.633 Y203.631 E26.91511
G1 X144.778 Y202.677 E26.95239
G1 X144.345 Y202.142 E26.97242
G1 X143.592 Y201.106 E27.00969
G1 X143.217 Y200.529 E27.02972
G1 X142.574 Y199.421 E27.06700
G1 X141.995 Y198.126 E27.10826
G1 X140.762 Y194.329 E27.22441
G1 X140.469 Y192.942 E27.26566
G1 X140.338 Y191.667 E27.30295
G1 X140.302 Y190.980 E27.32298
G1 X140.302 Y159.020 E28.25295
G1 X140.338 Y158.332 E28.27297
G1 X140.469 Y157.058 E28.31025
G1 X140.762 Y155.671 E28.35152
G1 X141.995 Y151.874 E28.46766
G1 X142.574 Y150.579 E28.50893
G1 X143.217 Y149.471 E28.54621
G1 X143.592 Y148.894 E28.56623
G1 X144.345 Y147.858 E28.60351
G1 X144.778 Y147.323 E28.62353
G1 X145.593 Y146.413 E28.65907
G1 X145.899 Y146.607 F6000.000
G1 X146.896 Y145.707 E28.69814 F1800.000
G1 X150.125 Y143.361 E28.81428
G1 X151.289 Y142.691 E28.85335
G1 X152.460 Y142.173 E28.89063
G1 X153.069 Y141.940 E28.90959
G1 X154.267 Y141.550 E28.94625
G1 X154.916 Y141.375 E28.96583
G1 X156.169 Y141.105 E29.00311
G1 X157.504 Y140.964 E29.04218
G1 X161.496 Y140.964 E29.15833
G1 X162.831 Y141.105 E29.19740
G1 X164.084 Y141.375 E29.23468 F1800.000
G1 X164.733 Y141.550 E29.25425
G1 X165.931 Y141.940 E29.29091
G1 X166.540 Y142.173 E29.30987
G1 X167.711 Y142.691 E29.34715
G1 X168.875 Y143.361 E29.38622
G1 X172.104 Y145.707 E29.50237
G1 X172.841 Y146.333 E29.53048
G1 X203.824 Y177.012 E30.79921
G1 X204.940 Y178.240 E30.84749
G1 X205.349 Y178.747 E30.86645
G1 X206.103 Y179.784 E30.90373
G1 X206.458 Y180.330 E30.92269
G1 X207.101 Y181.438 E30.95997
G1 X207.648 Y182.664 E30.99904
G1 X208.882 Y186.460 E31.11518
G1 X209.141 Y187.612 E31.14953
G1 X209.256 Y188.572 E31.17766
G1 X209.322 Y189.536 E31.20579
G1 X209.339 Y190.503 E31.23391
G1 X209.305 Y191.469 E31.26204
G1 X209.223 Y192.432 E31.29017
G1 X209.141 Y193.068 E31.30883
G1 X208.882 Y194.219 E31.34317
G1 X207.648 Y198.015 E31.45931
G1 X207.101 Y199.241 E31.49838
G1 X206.458 Y200.350 E31.53566
G1 X206.103 Y200.896 E31.55462
G1 X205.349 Y201.932 E31.59190
G1 X204.940 Y202.439 E31.61086
G1 X204.085 Y203.393 E31.64814
G1 X203.088 Y204.293 E31.68721
G1 X199.859 Y206.639 E31.80335
G1 X198.695 Y207.309 E31.84243
G1 X197.523 Y207.827 E31.87970
G1 X196.915 Y208.060 E31.89866
G1 X195.696 Y208.456 E31.93595
G1 X195.067 Y208.625 E31.95490
G1 X193.815 Y208.895 E31.99218
G1 X192.479 Y209.036 E32.03125
G1 X157.504 Y209.036 E33.04894
G1 X156.169 Y208.895 E33.08801
G1 X154.916 Y208.625 E33.12531
G1 X154.287 Y208.456 E33.14425
G1 X153.069 Y208.060 E33.18153
G1 X152.460 Y207.827 E33.20049
G1 X151.289 Y207.309 E33.23777
G1 X150.125 Y206.639 E33.27684
G1 X146.896 Y204.293 E33.39298
G1 X145.899 Y203.393 E33.43206
G1 X145.044 Y202.439 E33.46933
G1 X144.634 Y201.932 E33.48829
G1 X143.881 Y200.896 E33.52557
G1 X143.526 Y200.350 E33.54453
G1 X142.883 Y199.241 E33.58181
G1 X142.335 Y198.015 E33.62088
G1 X141.102 Y194.219 E33.73703
G1 X140.824 Y192.906 E33.77609
G1 X140.693 Y191.631 E33.81338
G1 X140.659 Y190.980 E33.83234
G1 X140.659 Y159.020 E34.76231
G1 X140.693 Y158.369 E34.78127
G1 X140.824 Y157.094 E34.81855
G1 X141.102 Y155.781 E34.85762
G1 X142.335 Y151.985 E34.97376
G1 X142.883 Y150.759 E35.01283
G1 X143.526 Y149.650 E35.05012
G1 X143.881 Y149.104 E35.06907
G1 X144.634 Y148.068 E35.10635
G1 X145.044 Y147.561 E35.12531
G1 X145.859 Y146.652 E35.16084
G1 E33.16084 F4800.00000
G92 E0
G1 X164.622 Y191.576 F6000.000
G1 E2.00000 F4800.00000
G1 X160.990 Y195.394 E2.15332 F1800.000
G1 X155.868 Y194.157 E2.30663
G1 X154.378 Y189.103 E2.45995
G1 X158.010 Y185.286 E2.61327
G1 X163.132 Y186.522 E2.76658
G1 X164.605 Y191.518 E2.91815
G1 X164.221 Y191.479 F6000.000
G1 X160.874 Y194.998 E3.05947 F1800.000
G1 X156.152 Y193.858 E3.20079
G1 X154.779 Y189.200 E3.34211
G1 X158.126 Y185.681 E3.48343
G1 X162.848 Y186.821 E3.62475
G1 X164.204 Y191.422 E3.76432
G1 X163.820 Y191.383 F6000.000
G1 X160.757 Y194.603 E3.89364 F1800.000
G1 X156.437 Y193.560 E4.02296
G1 X155.180 Y189.297 E4.15229
G1 X158.243 Y186.077 E4.28161
G1 X162.563 Y187.120 E4.41093
G1 X163.803 Y191.325 E4.53850
G1 X164.058 Y191.704 F6000.000
G1 X171.041 Y191.309 F6000.000
G1 X170.739 Y191.339 E4.54736 F1800.000
G1 X170.100 Y191.558 E4.56700
G1 X169.529 Y191.918 E4.58664
G1 X169.055 Y192.399 E4.60628
G1 X168.705 Y192.976 E4.62592
G1 X168.496 Y193.618 E4.64556
G1 X168.441 Y194.290 E4.66521
G1 X168.541 Y194.958 E4.68485
G1 X168.788 Y195.576 E4.70421
G1 X169.179 Y196.136 E4.72407
G1 X169.399 Y196.332 E4.73266
G1 X169.209 Y196.660 E4.74369
G1 X168.511 Y197.620 E4.77824
G1 X168.258 Y197.903 E4.78928
G1 X168.005 Y197.754 E4.79782
G1 X167.359 Y197.556 E4.81746
G1 X166.686 Y197.511 E4.83710
G1 X166.020 Y197.622 E4.85674
G1 X165.397 Y197.883 E4.87638
G1 X164.851 Y198.279 E4.89602
G1 X164.410 Y198.792 E4.91571
G1 X164.097 Y199.399 E4.93557
G1 X163.934 Y200.044 E4.95494
G1 X163.924 Y200.719 E4.97458
G1 X163.986 Y201.006 E4.98312
G1 X163.640 Y201.159 E4.99415
G1 X162.530 Y201.520 E5.02810
G1 X162.139 Y201.605 E5.03974
G1 X162.022 Y201.337 E5.04824
G1 X161.617 Y200.797 E5.06788
G1 X161.098 Y200.365 E5.08752
G1 X160.494 Y200.063 E5.10716
G1 X159.838 Y199.908 E5.12680
G1 X159.162 Y199.908 E5.14644
G1 X158.505 Y200.063 E5.16609
G1 X157.902 Y200.365 E5.18573
G1 X157.382 Y200.798 E5.20542
G1 X156.974 Y201.346 E5.22528
G1 X156.860 Y201.606 E5.23354
G1 X156.489 Y201.526 E5.24457
G1 X155.360 Y201.159 E5.27912
G1 X155.013 Y201.006 E5.29016
G1 X155.076 Y200.719 E5.29870
G1 X155.066 Y200.044 E5.31834
G1 X154.900 Y199.390 E5.33798
G1 X154.589 Y198.791 E5.35762
G1 X154.149 Y198.279 E5.37726
G1 X153.603 Y197.883 E5.39690
G1 X152.980 Y197.622 E5.41654
G1 X152.314 Y197.511 E5.43619
G1 X151.650 Y197.555 E5.45555
G1 X150.997 Y197.753 E5.47541
G1 X150.742 Y197.903 E5.48400
G1 X150.489 Y197.620 E5.49503
G1 X149.791 Y196.660 E5.52958
G1 X149.601 Y196.332 E5.54062
G1 X149.820 Y196.137 E5.54915
G1 X150.208 Y195.584 E5.56880
G1 X150.459 Y194.958 E5.58844
