; generated by Slic3r 1.2.9 on 2018-11-11 at 13:00:32

; external perimeters extrusion width = 0.40mm
; perimeters extrusion width = 0.67mm
; infill extrusion width = 0.67mm
; solid infill extrusion width = 0.67mm
; top infill extrusion width = 0.67mm

M107
M104 S200 ; set temperature
G28 ; home all axes
G1 Z5 F5000 ; lift nozzle

M109 S200 ; wait for temperature to be reached
G21 ; set units to millimeters
G90 ; use absolute coordinates
M82 ; use absolute distances for extrusion
G92 E0
G1 Z0.200 F6000.000
G1 E-2.00000 F4800.00000
G92 E0
G1 X153.764 Y142.604 F6000.000
G1 E2.00000 F4800.00000
G1 X155.552 Y140.875 E2.07386 F1800.000
G1 X157.795 Y139.798 E2.14772
G1 X160.000 Y139.479 E2.21388
G1 X190.000 Y139.479 E3.10462
G1 X192.456 Y139.877 E3.17848
G1 X194.661 Y141.029 E3.25234 F1800.000
G1 X196.390 Y142.817 E3.32620
G1 X197.467 Y145.059 E3.40006
G1 X197.785 Y147.265 E3.46622
G1 X197.785 Y187.765 E4.66872
G1 X197.652 Y190.134 E4.73917
G1 X197.529 Y191.104 E4.76820
G1 X197.176 Y192.954 E4.82413
G1 X196.933 Y193.901 E4.85316
G1 X196.351 Y195.693 E4.90909
G1 X195.991 Y196.602 E4.93811
G1 X195.189 Y198.306 E4.99404
G1 X194.718 Y199.163 E5.02307
G1 X193.709 Y200.753 E5.07901
G1 X193.134 Y201.544 E5.10803
G1 X191.933 Y202.996 E5.16396
G1 X191.264 Y203.708 E5.19299
G1 X189.891 Y204.998 E5.24893
G1 X189.138 Y205.621 E5.27795
G1 X187.613 Y206.728 E5.33388
G1 X186.788 Y207.252 E5.36291
G1 X185.161 Y208.147 E5.41804
G1 X184.253 Y208.576 E5.44787
G1 X182.501 Y209.269 E5.50380
G1 X181.571 Y209.571 E5.53283
G1 X179.747 Y210.040 E5.58876
G1 X178.786 Y210.223 E5.61779
G1 X176.917 Y210.459 E5.67372
G1 X175.942 Y210.521 E5.70274
G1 X174.058 Y210.521 E5.75867
G1 X173.082 Y210.459 E5.78770
G1 X171.214 Y210.223 E5.84363
G1 X170.253 Y210.040 E5.87266
G1 X168.429 Y209.571 E5.92859
G1 X167.499 Y209.269 E5.95762
G1 X165.747 Y208.576 E6.01356
G1 X164.863 Y208.160 E6.04258
G1 X163.212 Y207.252 E6.09851
G1 X162.386 Y206.728 E6.12754
G1 X160.862 Y205.621 E6.18347
G1 X160.109 Y204.998 E6.21250
G1 X158.736 Y203.708 E6.26843
G1 X158.067 Y202.996 E6.29746
G1 X156.866 Y201.544 E6.35340
G1 X156.291 Y200.753 E6.38242
G1 X155.282 Y199.163 E6.43835
G1 X154.811 Y198.306 E6.46738
G1 X154.009 Y196.602 E6.52331
G1 X153.649 Y195.692 E6.55234
G1 X153.067 Y193.901 E6.60827
G1 X152.824 Y192.954 E6.63730
G1 X152.471 Y191.104 E6.69323
G1 X152.348 Y190.134 E6.72225
G1 X152.215 Y187.765 E6.79270
G1 X152.215 Y147.265 E7.99520
G1 X152.612 Y144.809 E8.06906
G1 X153.736 Y142.657 E8.14114
G1 X154.090 Y142.780 F6000.000
G1 X154.118 Y142.728 E8.14289 F1800.000
G1 X155.897 Y141.072 E8.21503
G1 X158.114 Y140.080 E8.28717
G1 X160.000 Y139.836 E8.34361
G1 X190.000 Y139.836 E9.23435
G1 X192.397 Y140.234 E9.30649
G1 X194.537 Y141.383 E9.37862 F1800.000
G1 X196.192 Y143.162 E9.45076
G1 X197.185 Y145.379 E9.52290
G1 X197.428 Y147.265 E9.57934
G1 X197.428 Y187.765 E10.78184
G1 X197.295 Y190.111 E10.85162
G1 X197.178 Y191.037 E10.87932
G1 X196.825 Y192.887 E10.93525
G1 X196.593 Y193.791 E10.96295
G1 X196.011 Y195.582 E11.01888
G1 X195.668 Y196.449 E11.04657
G1 X194.866 Y198.154 E11.10250
G1 X194.417 Y198.971 E11.13020
G1 X193.407 Y200.562 E11.18614
G1 X192.859 Y201.317 E11.21383
G1 X191.658 Y202.768 E11.26976
G1 X191.020 Y203.448 E11.29746
G1 X189.646 Y204.738 E11.35339
G1 X188.928 Y205.332 E11.38108
G1 X187.404 Y206.439 E11.43702
G1 X186.616 Y206.939 E11.46471
G1 X184.989 Y207.834 E11.51984
G1 X184.121 Y208.244 E11.54834
G1 X182.370 Y208.937 E11.60427
G1 X181.483 Y209.226 E11.63197
G1 X179.658 Y209.694 E11.68790
G1 X178.742 Y209.869 E11.71559
G1 X176.873 Y210.105 E11.77153
G1 X175.942 Y210.164 E11.79922
G1 X174.058 Y210.164 E11.85515
G1 X173.127 Y210.105 E11.88285
G1 X171.258 Y209.869 E11.93878
G1 X170.342 Y209.694 E11.96648
G1 X168.517 Y209.226 E12.02241
G1 X167.630 Y208.937 E12.05010
G1 X165.878 Y208.244 E12.10604
G1 X165.035 Y207.847 E12.13373
G1 X163.384 Y206.939 E12.18966
G1 X162.596 Y206.439 E12.21736
G1 X161.072 Y205.332 E12.27329
G1 X160.354 Y204.738 E12.30099
G1 X158.980 Y203.448 E12.35692
G1 X158.342 Y202.768 E12.38462
G1 X157.141 Y201.316 E12.44055
G1 X156.593 Y200.562 E12.46824
G1 X155.583 Y198.971 E12.52417
G1 X155.134 Y198.154 E12.55187
G1 X154.332 Y196.449 E12.60780
G1 X153.989 Y195.582 E12.63550
G1 X153.407 Y193.791 E12.69143
G1 X153.175 Y192.887 E12.71913
G1 X152.822 Y191.037 E12.77506
G1 X152.705 Y190.111 E12.80275
G1 X152.572 Y187.765 E12.87253
G1 X152.572 Y147.265 E14.07503
G1 X152.969 Y144.868 E14.14717
G1 X154.062 Y142.832 E14.21577
G1 X154.415 Y142.959 F6000.000
G1 X154.473 Y142.854 E14.21932 F1800.000
G1 X156.241 Y141.276 E14.28969
G1 X158.431 Y140.370 E14.36006
G1 X160.000 Y140.194 E14.40695
G1 X190.000 Y140.194 E15.29768
G1 X192.337 Y140.591 E15.36805
G1 X194.411 Y141.738 E15.43842 F1800.000
G1 X195.989 Y143.505 E15.50879
G1 X196.895 Y145.696 E15.57916
G1 X197.071 Y147.265 E15.62605
G1 X197.071 Y187.765 E16.82855
G1 X196.939 Y190.089 E16.89766
G1 X196.828 Y190.970 E16.92403
G1 X196.475 Y192.820 E16.97996
G1 X196.254 Y193.680 E17.00632
G1 X195.672 Y195.472 E17.06226
G1 X195.345 Y196.297 E17.08862
G1 X194.543 Y198.002 E17.14455
G1 X194.115 Y198.780 E17.17091
G1 X193.106 Y200.371 E17.22685
G1 X192.584 Y201.089 E17.25321
G1 X191.383 Y202.540 E17.30914
G1 X190.775 Y203.188 E17.33551
G1 X189.402 Y204.477 E17.39144
G1 X188.718 Y205.043 E17.41780
G1 X187.194 Y206.151 E17.47374
G1 X186.444 Y206.626 E17.50010
G1 X184.817 Y207.521 E17.55523
G1 X183.990 Y207.912 E17.58239
G1 X182.238 Y208.605 E17.63832
G1 X181.394 Y208.880 E17.66469
G1 X179.569 Y209.348 E17.72062
G1 X178.697 Y209.515 E17.74699
G1 X176.828 Y209.751 E17.80292
G1 X175.942 Y209.806 E17.82928
G1 X174.058 Y209.806 E17.88521
G1 X173.172 Y209.751 E17.91158
G1 X171.303 Y209.515 E17.96751
G1 X170.431 Y209.348 E17.99388
G1 X168.606 Y208.880 E18.04981
G1 X167.762 Y208.605 E18.07617
G1 X166.010 Y207.912 E18.13211
G1 X165.207 Y207.534 E18.15847
G1 X163.556 Y206.626 E18.21440
G1 X162.806 Y206.150 E18.24076
G1 X161.282 Y205.043 E18.29669
G1 X160.598 Y204.477 E18.32306
G1 X159.225 Y203.188 E18.37899
G1 X158.617 Y202.540 E18.40536
G1 X157.416 Y201.089 E18.46130
G1 X156.894 Y200.371 E18.48765
G1 X155.885 Y198.780 E18.54358
G1 X155.457 Y198.002 E18.56995
G1 X154.655 Y196.297 E18.62588
G1 X154.328 Y195.472 E18.65225
G1 X153.746 Y193.680 E18.70818
G1 X153.525 Y192.820 E18.73454
G1 X153.172 Y190.970 E18.79047
G1 X153.061 Y190.089 E18.81684
G1 X152.929 Y187.765 E18.88595
G1 X152.929 Y147.265 E20.08845
G1 X153.326 Y144.928 E20.15882
G1 X154.386 Y143.012 E20.22385
G1 X154.737 Y143.143 F6000.000
G1 X154.827 Y142.985 E20.22925 F1800.000
G1 X156.583 Y141.485 E20.29781
G1 X158.743 Y140.669 E20.36637
G1 X160.000 Y140.551 E20.40386
G1 X190.000 Y140.551 E21.29460
G1 X192.275 Y140.948 E21.36315
G1 X194.280 Y142.092 E21.43171 F1800.000
G1 X195.780 Y143.848 E21.50026
G1 X196.595 Y146.008 E21.56882
G1 X196.714 Y147.265 E21.60631
G1 X196.714 Y187.765 E22.80881
G1 X196.583 Y190.066 E22.87726
G1 X196.477 Y190.903 E22.90229
G1 X196.124 Y192.753 E22.95822
G1 X195.914 Y193.570 E22.98326
G1 X195.332 Y195.362 E23.03919
G1 X195.022 Y196.145 E23.06422
G1 X194.220 Y197.850 E23.12015
G1 X193.814 Y198.589 E23.14519
G1 X192.804 Y200.179 E23.20112
G1 X192.309 Y200.861 E23.22615
G1 X191.108 Y202.313 E23.28208
G1 X190.531 Y202.927 E23.30712
G1 X189.157 Y204.217 E23.36305
G1 X188.508 Y204.754 E23.38808
G1 X187.006 Y205.846 E23.44321
G1 X186.272 Y206.313 E23.46904
G1 X184.621 Y207.221 E23.52498
G1 X183.858 Y207.580 E23.55001
G1 X182.107 Y208.273 E23.60594
G1 X181.305 Y208.534 E23.63097
G1 X179.480 Y209.002 E23.68690
G1 X178.652 Y209.160 E23.71194
G1 X176.783 Y209.396 E23.76787
G1 X175.942 Y209.449 E23.79290
G1 X174.058 Y209.449 E23.84883
G1 X173.217 Y209.396 E23.87387
G1 X171.348 Y209.160 E23.92980
G1 X170.520 Y209.002 E23.95483
G1 X168.695 Y208.534 E24.01076
G1 X167.893 Y208.273 E24.03580
G1 X166.141 Y207.580 E24.09174
G1 X165.379 Y207.221 E24.11676
G1 X163.728 Y206.313 E24.17269
G1 X163.016 Y205.862 E24.19773
G1 X161.492 Y204.754 E24.25366
G1 X160.842 Y204.217 E24.27869
G1 X159.469 Y202.927 E24.33462
G1 X158.892 Y202.313 E24.35966
G1 X157.691 Y200.861 E24.41560
G1 X157.196 Y200.179 E24.44062
G1 X156.186 Y198.589 E24.49655
G1 X155.780 Y197.850 E24.52159
G1 X154.978 Y196.145 E24.57752
G1 X154.668 Y195.361 E24.60255
G1 X154.086 Y193.570 E24.65848
G1 X153.876 Y192.753 E24.68352
G1 X153.523 Y190.903 E24.73945
G1 X153.417 Y190.066 E24.76448
G1 X153.286 Y187.765 E24.83293
G1 X153.286 Y147.265 E26.03543
G1 X153.683 Y144.990 E26.10398
G1 X154.707 Y143.195 E26.16536
G1 X155.056 Y143.331 F6000.000
G1 X155.181 Y143.119 E26.17266 F1800.000
G1 X156.923 Y141.702 E26.23935
G1 X160.000 Y140.908 E26.33369
G1 X190.000 Y140.908 E27.22443
G1 X192.211 Y141.305 E27.29112
G1 X194.146 Y142.446 E27.35782 F1800.000
G1 X195.563 Y144.188 E27.42451
G1 X196.357 Y147.265 E27.51885
G1 X196.357 Y187.765 E28.72135
G1 X196.226 Y190.044 E28.78913
G1 X196.126 Y190.836 E28.81284
G1 X195.773 Y192.686 E28.86877
G1 X195.575 Y193.460 E28.89247
G1 X194.993 Y195.251 E28.94840
G1 X194.699 Y195.993 E28.97210
G1 X193.897 Y197.698 E29.02803
G1 X193.512 Y198.397 E29.05174
G1 X192.503 Y199.988 E29.10767
G1 X192.033 Y200.634 E29.13137
G1 X190.833 Y202.085 E29.18730
G1 X190.286 Y202.667 E29.21100
G1 X188.913 Y203.957 E29.26693
G1 X188.298 Y204.465 E29.29064
G1 X186.796 Y205.557 E29.34577
G1 X186.100 Y206.000 E29.37027
G1 X184.449 Y206.908 E29.42620
G1 X183.727 Y207.248 E29.44990
G1 X181.975 Y207.941 E29.50583
G1 X181.216 Y208.188 E29.52953
G1 X179.392 Y208.656 E29.58546
G1 X178.607 Y208.806 E29.60917
G1 X176.738 Y209.042 E29.66510
G1 X175.942 Y209.092 E29.68880
G1 X174.058 Y209.092 E29.74473
G1 X173.261 Y209.042 E29.76843
G1 X171.393 Y208.806 E29.82436
G1 X170.608 Y208.656 E29.84807
G1 X168.784 Y208.188 E29.90400
G1 X168.025 Y207.941 E29.92770
G1 X166.273 Y207.248 E29.98364
G1 X165.551 Y206.908 E30.00733
G1 X163.900 Y206.000 E30.06326
G1 X163.226 Y205.573 E30.08697
G1 X161.702 Y204.465 E30.14290
G1 X161.087 Y203.957 E30.16660
G1 X159.714 Y202.667 E30.22253
G1 X159.167 Y202.085 E30.24623
G1 X157.966 Y200.634 E30.30217
G1 X157.497 Y199.988 E30.32587
G1 X156.488 Y198.397 E30.38180
G1 X156.103 Y197.698 E30.40550
G1 X155.301 Y195.993 E30.46143
G1 X155.007 Y195.251 E30.48513
G1 X154.425 Y193.460 E30.54106
G1 X154.227 Y192.686 E30.56477
G1 X153.874 Y190.836 E30.62070
G1 X153.774 Y190.044 E30.64440
G1 X153.643 Y187.765 E30.71218
G1 X153.643 Y147.265 E31.91468
G1 X154.040 Y145.054 E31.98138
G1 X155.025 Y143.382 E32.03899
G1 E30.03899 F4800.00000
G92 E0
G1 X184.846 Y194.978 F6000.000
G1 E2.00000 F4800.00000
G1 X183.735 Y196.371 E2.05291 F1800.000
G1 X182.410 Y197.595 E2.10648
G1 X180.958 Y198.585 E2.15864
G1 X179.354 Y199.358 E2.21152
G1 X177.652 Y199.883 E2.26440
G1 X175.890 Y200.148 E2.31732
G1 X174.085 Y200.145 E2.37089
G1 X172.348 Y199.883 E2.42304
G1 X170.646 Y199.358 E2.47593
G1 X169.042 Y198.585 E2.52881
G1 X167.570 Y197.582 E2.58169
G1 X166.264 Y196.370 E2.63457
G1 X165.154 Y194.978 E2.68744
G1 X164.267 Y193.445 E2.74002
G1 X163.612 Y191.776 E2.79325
G1 X163.215 Y190.017 E2.84683
G1 X163.083 Y188.265 E2.89898
G1 X163.216 Y186.489 E2.95186
G1 X163.613 Y184.751 E3.00478
G1 X164.276 Y183.073 E3.05835
G1 X165.154 Y181.552 E3.11050
G1 X166.264 Y180.159 E3.16339
G1 X167.570 Y178.948 E3.21627
G1 X169.042 Y177.945 E3.26915
G1 X170.646 Y177.172 E3.32203
G1 X172.348 Y176.647 E3.37492
G1 X174.109 Y176.381 E3.42780
G1 X175.892 Y176.381 E3.48071 F1800.000
G1 X177.675 Y176.654 E3.53428
G1 X179.354 Y177.172 E3.58644
G1 X180.958 Y177.945 E3.63932
G1 X182.431 Y178.948 E3.69223
G1 X183.751 Y180.178 E3.74580
G1 X184.846 Y181.552 E3.79796
G1 X185.737 Y183.094 E3.85084
G1 X186.388 Y184.753 E3.90375
G1 X186.785 Y186.513 E3.95733
G1 X186.917 Y188.265 E4.00948
G1 X186.784 Y190.041 E4.06236
G1 X186.387 Y191.777 E4.11525
G1 X185.737 Y193.435 E4.16813
G1 X184.876 Y194.926 E4.21923
G1 X184.550 Y194.776 F6000.000
G1 X183.473 Y196.127 E4.27054 F1800.000
G1 X182.187 Y197.315 E4.32252
G1 X180.779 Y198.275 E4.37310
G1 X179.223 Y199.024 E4.42440
G1 X177.572 Y199.534 E4.47569
G1 X175.863 Y199.791 E4.52700
G1 X174.112 Y199.788 E4.57898
G1 X172.428 Y199.534 E4.62956
G1 X170.777 Y199.024 E4.68086
G1 X169.221 Y198.275 E4.73215
G1 X167.793 Y197.302 E4.78344
G1 X166.527 Y196.127 E4.83474
G1 X165.450 Y194.776 E4.88602
G1 X164.590 Y193.290 E4.93701
G1 X163.955 Y191.671 E4.98864
G1 X163.569 Y189.964 E5.04062
G1 X163.441 Y188.265 E5.09120
G1 X163.570 Y186.542 E5.14249
G1 X163.955 Y184.857 E5.19380
G1 X164.598 Y183.229 E5.24579
G1 X165.450 Y181.754 E5.29636
G1 X166.527 Y180.403 E5.34766
G1 X167.793 Y179.228 E5.39895
G1 X169.221 Y178.255 E5.45025
G1 X170.777 Y177.505 E5.50154
G1 X172.428 Y176.996 E5.55283
G1 X174.136 Y176.738 E5.60413
G1 X175.864 Y176.738 E5.65544 F1800.000
G1 X177.595 Y177.003 E5.70742
G1 X179.223 Y177.505 E5.75800
G1 X180.779 Y178.255 E5.80929
G1 X182.207 Y179.228 E5.86060
G1 X183.488 Y180.422 E5.91259
G1 X184.550 Y181.754 E5.96316
G1 X185.414 Y183.250 E6.01446
G1 X186.045 Y184.858 E6.06577
G1 X186.431 Y186.566 E6.11775
G1 X186.559 Y188.265 E6.16833
G1 X186.430 Y189.988 E6.21962
G1 X186.045 Y191.672 E6.27092
G1 X185.414 Y193.280 E6.32221
G1 X184.580 Y194.724 E6.37172
G1 X184.254 Y194.574 F6000.000
G1 X183.210 Y195.883 E6.42143 F1800.000
G1 X181.964 Y197.035 E6.47183
G1 X180.600 Y197.965 E6.52083
G1 X179.092 Y198.691 E6.57053
G1 X177.492 Y199.185 E6.62024
G1 X175.837 Y199.434 E6.66995
G1 X174.140 Y199.431 E6.72034
G1 X172.508 Y199.185 E6.76934
G1 X170.908 Y198.691 E6.81905
G1 X169.400 Y197.965 E6.86875
G1 X168.017 Y197.022 E6.91845
G1 X166.789 Y195.883 E6.96816
G1 X165.746 Y194.574 E7.01786
G1 X164.913 Y193.134 E7.06726
G1 X164.297 Y191.566 E7.11728
G1 X163.923 Y189.911 E7.16768
G1 X163.799 Y188.265 E7.21668
G1 X163.925 Y186.595 E7.26638
G1 X164.297 Y184.963 E7.31609
G1 X164.920 Y183.385 E7.36649
G1 X165.746 Y181.955 E7.41549
G1 X166.789 Y180.646 E7.46519
G1 X168.017 Y179.508 E7.51489
G1 X169.400 Y178.565 E7.56460
G1 X170.908 Y177.838 E7.61430
G1 X172.508 Y177.345 E7.66401
G1 X174.163 Y177.096 E7.71371
G1 X175.837 Y177.096 E7.76342 F1800.000
G1 X177.515 Y177.352 E7.81382
G1 X179.092 Y177.838 E7.86282
G1 X180.600 Y178.565 E7.91252
G1 X181.984 Y179.508 E7.96223
G1 X183.225 Y180.665 E8.01263
G1 X184.254 Y181.955 E8.06163
G1 X185.091 Y183.405 E8.11133
G1 X185.703 Y184.964 E8.16104
G1 X186.077 Y186.619 E8.21144
G1 X186.201 Y188.265 E8.26044
G1 X186.075 Y189.934 E8.31014
G1 X185.703 Y191.566 E8.35985
G1 X185.091 Y193.125 E8.40955
G1 X184.284 Y194.522 E8.45747
G1 X184.419 Y194.939 F6000.000
G1 E6.45747 F4800.00000
G92 E0
G1 X175.870 Y160.558 F6000.000
G1 E2.00000 F4800.00000
G1 X175.414 Y160.671 E2.01396 F1800.000
G1 X174.586 Y160.671 E2.03852
G1 X173.783 Y160.473 E2.06308
G1 X173.051 Y160.088 E2.08763
G1 X172.432 Y159.540 E2.11219
G1 X171.961 Y158.858 E2.13679
G1 X171.668 Y158.076 E2.16160
G1 X171.569 Y157.265 E2.18586
G1 X171.669 Y156.444 E2.21041
G1 X171.962 Y155.670 E2.23497
G1 X172.432 Y154.990 E2.25953
G1 X173.051 Y154.441 E2.28409
G1 X173.783 Y154.057 E2.30864
G1 X174.586 Y153.859 E2.33320
G1 X175.414 Y153.859 E2.35776 F1800.000
G1 X176.217 Y154.057 E2.38232
G1 X176.950 Y154.442 E2.40692
G1 X177.574 Y154.998 E2.43173
G1 X178.038 Y155.670 E2.45598
G1 X178.331 Y156.444 E2.48054
G1 X178.431 Y157.265 E2.50510
G1 X178.331 Y158.086 E2.52965
G1 X178.038 Y158.859 E2.55421
G1 X177.568 Y159.540 E2.57877
G1 X176.949 Y160.088 E2.60332
G1 X176.217 Y160.473 E2.62788
G1 X175.928 Y160.544 E2.63670
G1 X175.785 Y160.211 F6000.000
G1 X175.370 Y160.314 E2.64937 F1800.000
G1 X174.630 Y160.314 E2.67135
G1 X173.911 Y160.136 E2.69334
G1 X173.255 Y159.792 E2.71532
G1 X172.701 Y159.301 E2.73730
G1 X172.280 Y158.691 E2.75931
G1 X172.017 Y157.990 E2.78155
G1 X171.929 Y157.265 E2.80324
G1 X172.018 Y156.530 E2.82523
G1 X172.281 Y155.838 E2.84721
G1 X172.701 Y155.228 E2.86919
G1 X173.255 Y154.737 E2.89117
G1 X173.911 Y154.393 E2.91316
G1 X174.630 Y154.216 E2.93514
G1 X175.370 Y154.216 E2.95712 F1800.000
G1 X176.089 Y154.393 E2.97911
G1 X176.745 Y154.738 E3.00112
G1 X177.304 Y155.236 E3.02335
G1 X177.719 Y155.838 E3.04505
