; generated by Slic3r 1.2.9 on 2018-11-10 at 21:42:24

; external perimeters extrusion width = 0.40mm
; perimeters extrusion width = 0.67mm
; infill extrusion width = 0.67mm
; solid infill extrusion width = 0.67mm
; top infill extrusion width = 0.67mm

M107
M104 S200 ; set temperature
G28 ; home all axes
G1 Z5 F5000 ; lift nozzle

M109 S200 ; wait for temperature to be reached
G21 ; set units to millimeters
G90 ; use absolute coordinates
M82 ; use absolute distances for extrusion
G92 E0
G1 Z0.200 F6000.000
G1 E-2.00000 F4800.00000
G92 E0
G1 X165.913 Y129.848 F6000.000
G1 E2.00000 F4800.00000
G1 X167.837 Y128.270 E2.07386 F1800.000
G1 X170.159 Y127.379 E2.14772
G1 X171.750 Y127.215 E2.19520
G1 X183.750 Y127.215 E2.55150
G1 X186.206 Y127.612 E2.62536
G1 X188.411 Y128.764 E2.69922 F1800.000
G1 X190.140 Y130.552 E2.77308
G1 X191.217 Y132.795 E2.84694
G1 X191.535 Y135.000 E2.91310
G1 X191.535 Y153.000 E3.44755
G1 X191.499 Y153.750 E3.46984
G1 X185.499 Y215.750 E5.31930
G1 X184.867 Y218.156 E5.39316
G1 X183.508 Y220.240 E5.46702
G1 X181.562 Y221.788 E5.54088
G1 X179.226 Y222.644 E5.61474
G1 X177.750 Y222.785 E5.65876
G1 X171.750 Y222.785 E5.83691
G1 X169.294 Y222.388 E5.91077
G1 X167.089 Y221.236 E5.98463
G1 X165.501 Y219.644 E6.05140
G1 X160.001 Y212.244 E6.32515
G1 X158.856 Y210.036 E6.39901
G1 X158.465 Y207.600 E6.47227
G1 X158.465 Y202.400 E6.62667
G1 X158.490 Y201.767 E6.64548
G1 X163.990 Y134.367 E8.65333
G1 X164.586 Y131.952 E8.72719
G1 X165.881 Y129.898 E8.79927
G1 X166.225 Y130.049 F6000.000
G1 X166.257 Y129.999 E8.80102 F1800.000
G1 X168.164 Y128.494 E8.87316
G1 X170.455 Y127.685 E8.94530
G1 X171.750 Y127.572 E8.98389
G1 X183.750 Y127.572 E9.34019
G1 X186.147 Y127.969 E9.41232
G1 X188.287 Y129.118 E9.48446 F1800.000
G1 X189.942 Y130.897 E9.55659
G1 X190.935 Y133.114 E9.62873
G1 X191.178 Y135.000 E9.68518
G1 X191.178 Y153.000 E10.21962
G1 X191.144 Y153.716 E10.24089
G1 X185.144 Y215.716 E12.09035
G1 X184.517 Y218.063 E12.16249
G1 X183.167 Y220.083 E12.23462
G1 X181.237 Y221.559 E12.30676
G1 X177.750 Y222.428 E12.41348
G1 X171.750 Y222.428 E12.59162
G1 X169.353 Y222.031 E12.66376
G1 X167.213 Y220.882 E12.73590
G1 X165.788 Y219.431 E12.79626
G1 X160.288 Y212.031 E13.07002
G1 X159.177 Y209.870 E13.14215
G1 X158.822 Y207.600 E13.21039
G1 X158.822 Y202.400 E13.36478
G1 X158.846 Y201.796 E13.38274
G1 X164.346 Y134.396 E15.39058
G1 X164.937 Y132.039 E15.46272
G1 X166.192 Y130.099 E15.53132
G1 X166.534 Y130.254 F6000.000
G1 X166.600 Y130.155 E15.53487 F1800.000
G1 X168.490 Y128.725 E15.60524
G1 X171.750 Y127.929 E15.70487
G1 X183.750 Y127.929 E16.06117
G1 X186.087 Y128.326 E16.13154
G1 X188.161 Y129.473 E16.20191 F1800.000
G1 X189.739 Y131.241 E16.27228
G1 X190.645 Y133.431 E16.34265
G1 X190.821 Y135.000 E16.38953
G1 X190.821 Y153.000 E16.92398
G1 X190.788 Y153.681 E16.94422
G1 X184.788 Y215.681 E18.79368
G1 X184.168 Y217.969 E18.86405
G1 X182.827 Y219.922 E18.93442
G1 X180.915 Y221.323 E19.00479
G1 X177.750 Y222.071 E19.10135
G1 X171.750 Y222.071 E19.27950
G1 X169.413 Y221.674 E19.34987
G1 X167.339 Y220.527 E19.42024
G1 X166.075 Y219.218 E19.47428
G1 X160.575 Y211.818 E19.74804
G1 X159.500 Y209.706 E19.81841
G1 X159.179 Y207.600 E19.88166
G1 X159.179 Y202.400 E20.03605
G1 X159.202 Y201.825 E20.05314
G1 X164.702 Y134.425 E22.06099
G1 X165.288 Y132.128 E22.13136
G1 X166.500 Y130.304 E22.19639
G1 X166.840 Y130.463 F6000.000
G1 X166.942 Y130.313 E22.20179 F1800.000
G1 X168.814 Y128.962 E22.27035
G1 X171.750 Y128.286 E22.35979
G1 X183.750 Y128.286 E22.71609
G1 X186.025 Y128.683 E22.78465
G1 X188.030 Y129.827 E22.85320 F1800.000
G1 X189.530 Y131.583 E22.92176
G1 X190.345 Y133.743 E22.99031
G1 X190.464 Y135.000 E23.02781
G1 X190.464 Y153.000 E23.56225
G1 X190.433 Y153.647 E23.58147
G1 X184.433 Y215.647 E25.43093
G1 X183.819 Y217.872 E25.49949
G1 X182.487 Y219.759 E25.56805
G1 X180.595 Y221.082 E25.63660
G1 X177.750 Y221.714 E25.72312
G1 X171.750 Y221.714 E25.90127
G1 X169.475 Y221.317 E25.96983
G1 X167.470 Y220.173 E26.03838
G1 X166.361 Y219.005 E26.08619
G1 X160.861 Y211.605 E26.35995
G1 X159.823 Y209.543 E26.42851
G1 X159.536 Y207.600 E26.48682
G1 X159.536 Y202.400 E26.64121
G1 X159.558 Y201.854 E26.65744
G1 X165.058 Y134.454 E28.66528
G1 X165.639 Y132.219 E28.73384
G1 X166.806 Y130.513 E28.79521
G1 X167.142 Y130.677 F6000.000
G1 X167.284 Y130.476 E28.80251 F1800.000
G1 X169.136 Y129.205 E28.86921
G1 X171.750 Y128.643 E28.94859
G1 X183.750 Y128.643 E29.30489
G1 X185.961 Y129.040 E29.37158
G1 X187.896 Y130.181 E29.43827 F1800.000
G1 X189.313 Y131.923 E29.50497
G1 X190.107 Y135.000 E29.59931
G1 X190.107 Y153.000 E30.13375
G1 X190.078 Y153.612 E30.15195
G1 X184.078 Y215.612 E32.00141
G1 X183.470 Y217.775 E32.06811
G1 X182.147 Y219.591 E32.13480
G1 X180.276 Y220.834 E32.20150
G1 X177.750 Y221.357 E32.27810
G1 X171.750 Y221.357 E32.45625
G1 X169.539 Y220.960 E32.52294
G1 X167.604 Y219.819 E32.58964
G1 X166.648 Y218.792 E32.63131
G1 X161.148 Y211.392 E32.90506
G1 X160.147 Y209.381 E32.97176
G1 X159.893 Y207.600 E33.02517
G1 X159.893 Y202.400 E33.17957
G1 X159.914 Y201.883 E33.19493
G1 X165.414 Y134.483 E35.20278
G1 X165.989 Y132.312 E35.26947
G1 X167.108 Y130.726 E35.32708
G1 E33.32708 F4800.00000
G92 E0
G1 X172.664 Y206.686 F6000.000
G1 E2.00000 F4800.00000
G1 X167.164 Y206.686 E2.16330 F1800.000
G1 X167.164 Y203.314 E2.26341
G1 X172.664 Y203.314 E2.42671
G1 X172.664 Y135.914 E4.42791
G1 X182.836 Y135.914 E4.72992
G1 X182.836 Y152.086 E5.21008
G1 X176.836 Y152.086 E5.38823
G1 X176.836 Y214.086 E7.22909
G1 X172.664 Y214.086 E7.35295
G1 X172.664 Y206.746 E7.57088
G1 X172.307 Y207.043 F6000.000
G1 X166.807 Y207.043 E7.73419 F1800.000
G1 X166.807 Y202.957 E7.85550
G1 X172.307 Y202.957 E8.01880
G1 X172.307 Y135.557 E10.02000
G1 X183.193 Y135.557 E10.34321
G1 X183.193 Y152.443 E10.84457
G1 X177.193 Y152.443 E11.02272
G1 X177.193 Y214.443 E12.86358
G1 X172.307 Y214.443 E13.00865
G1 X172.307 Y207.103 E13.22658
G1 X171.950 Y207.400 F6000.000
G1 X166.450 Y207.400 E13.38989 F1800.000
G1 X166.450 Y202.600 E13.53240
G1 X171.950 Y202.600 E13.69571
G1 X171.950 Y135.200 E15.69690
G1 X183.550 Y135.200 E16.04132
G1 X183.550 Y152.800 E16.56389
G1 X177.550 Y152.800 E16.74203
G1 X177.550 Y214.800 E18.58289
G1 X171.950 Y214.800 E18.74917
G1 X171.950 Y207.460 E18.96710
G1 X171.950 Y207.000 F6000.000
G1 X172.872 Y207.101 F6000.000
G1 X176.628 Y210.858 E19.12532 F1800.000
G1 X176.628 Y211.364 E19.14040
G1 X172.872 Y207.608 E19.29862
G1 X172.872 Y208.115 E19.31371
G1 X176.628 Y211.871 E19.47192
G1 X176.628 Y212.377 E19.48701
G1 X172.872 Y208.621 E19.64523
G1 X172.872 Y209.128 E19.66032
G1 X176.628 Y212.884 E19.81853
G1 X176.628 Y213.390 E19.83362
G1 X172.872 Y209.634 E19.99184
G1 X172.872 Y210.141 E20.00692
G1 X176.599 Y213.868 E20.16390
G1 X176.103 Y213.878 E20.17868
G1 X172.872 Y210.647 E20.31476
G1 X172.872 Y211.154 E20.32985
G1 X175.596 Y213.878 E20.44459
G1 X175.090 Y213.878 E20.45968
G1 X172.872 Y211.660 E20.55309
G1 X172.872 Y212.167 E20.56818
G1 X174.583 Y213.878 E20.64025
G1 X174.076 Y213.878 E20.65534
G1 X172.872 Y212.674 E20.70607
G1 X172.872 Y213.180 E20.72116
G1 X173.570 Y213.878 E20.75055
G1 E18.75055 F4800.00000
G92 E0
G1 X167.372 Y206.160 F6000.000
G1 E2.00000 F4800.00000
G1 X167.690 Y206.478 E2.01338 F1800.000
G1 X168.196 Y206.478 E2.02847
G1 X167.372 Y205.654 E2.06318
G1 X167.372 Y205.147 E2.07827
G1 X168.703 Y206.478 E2.13432
G1 X169.209 Y206.478 E2.14941
G1 X167.372 Y204.641 E2.22680
G1 X167.372 Y204.134 E2.24189
G1 X169.716 Y206.478 E2.34061
G1 X170.222 Y206.478 E2.35570
G1 X167.372 Y203.628 E2.47577
G1 X167.773 Y203.522 E2.48811
G1 X170.729 Y206.478 E2.61263
G1 X171.235 Y206.478 E2.62772
G1 X168.279 Y203.522 E2.75224
G1 X168.786 Y203.522 E2.76733
G1 X171.742 Y206.478 E2.89185
G1 X172.249 Y206.478 E2.90693
G1 X169.292 Y203.522 E3.03145
G1 X169.799 Y203.522 E3.04654
G1 X176.628 Y210.351 E3.33419
G1 X176.628 Y209.844 E3.34928
G1 X170.306 Y203.522 E3.61559
G1 X170.812 Y203.522 E3.63068
G1 X176.628 Y209.338 E3.87566
G1 X176.628 Y208.831 E3.89075
G1 X171.319 Y203.522 E4.11439
G1 X171.825 Y203.522 E4.12947
G1 X176.628 Y208.325 E4.33178
G1 X176.628 Y207.818 E4.34686
G1 X172.332 Y203.522 E4.52783
G1 X172.838 Y203.522 E4.54292
G1 X176.628 Y207.312 E4.70254
G1 X176.628 Y206.805 E4.71763
G1 X172.872 Y203.049 E4.87585
G1 X172.872 Y202.542 E4.89094
G1 X176.628 Y206.298 E5.04915
G1 X176.628 Y205.792 E5.06424
G1 X172.872 Y202.036 E5.22245
G1 X172.872 Y201.529 E5.23754
G1 X176.628 Y205.285 E5.39576
G1 X176.628 Y204.779 E5.41085
G1 X172.872 Y201.023 E5.56906
G1 X172.872 Y200.516 E5.58415
G1 X176.628 Y204.272 E5.74237
G1 X176.628 Y203.766 E5.75745
G1 X172.872 Y200.009 E5.91567
G1 X172.872 Y199.503 E5.93076
G1 X176.628 Y203.259 E6.08897
G1 X176.628 Y202.753 E6.10406
G1 X172.872 Y198.996 E6.26228
G1 X172.872 Y198.490 E6.27737
G1 X176.628 Y202.246 E6.43558
G1 X176.628 Y201.739 E6.45067
G1 X172.872 Y197.983 E6.60888
G1 X172.872 Y197.477 E6.62397
G1 X176.628 Y201.233 E6.78219
G1 X176.628 Y200.726 E6.79728
G1 X172.872 Y196.970 E6.95549
G1 X172.872 Y196.463 E6.97058
G1 X176.628 Y200.220 E7.12880
G1 X176.628 Y199.713 E7.14388
G1 X172.872 Y195.957 E7.30210
G1 X172.872 Y195.450 E7.31719
G1 X176.628 Y199.207 E7.47540
G1 X176.628 Y198.700 E7.49049
G1 X172.872 Y194.944 E7.64871
G1 X172.872 Y194.437 E7.66380
G1 X176.628 Y198.193 E7.82201
G1 X176.628 Y197.687 E7.83710
G1 X172.872 Y193.931 E7.99531
G1 X172.872 Y193.424 E8.01040
G1 X176.628 Y197.180 E8.16862
G1 X176.628 Y196.674 E8.18371
G1 X172.872 Y192.917 E8.34192
G1 X172.872 Y192.411 E8.35701
G1 X176.628 Y196.167 E8.51523
G1 X176.628 Y195.661 E8.53031
G1 X172.872 Y191.904 E8.68853
G1 X172.872 Y191.398 E8.70362
G1 X176.628 Y195.154 E8.86183
G1 X176.628 Y194.647 E8.87692
G1 X172.872 Y190.891 E9.03514
G1 X172.872 Y190.385 E9.05022
G1 X176.628 Y194.141 E9.20844
G1 X176.628 Y193.634 E9.22353
G1 X172.872 Y189.878 E9.38174
G1 X172.872 Y189.372 E9.39683
G1 X176.628 Y193.128 E9.55505
G1 X176.628 Y192.621 E9.57014
G1 X172.872 Y188.865 E9.72835
G1 X172.872 Y188.358 E9.74344
G1 X176.628 Y192.115 E9.90166
G1 X176.628 Y191.608 E9.91674
G1 X172.872 Y187.852 E10.07496
G1 X172.872 Y187.345 E10.09005
G1 X176.628 Y191.101 E10.24826
G1 X176.628 Y190.595 E10.26335
G1 X172.872 Y186.839 E10.42157
G1 X172.872 Y186.332 E10.43665
G1 X176.628 Y190.088 E10.59487
G1 X176.628 Y189.582 E10.60996
G1 X172.872 Y185.826 E10.76817
G1 X172.872 Y185.319 E10.78326
G1 X176.628 Y189.075 E10.94148
G1 X176.628 Y188.569 E10.95657
G1 X172.872 Y184.812 E11.11478
G1 X172.872 Y184.306 E11.12987
G1 X176.628 Y188.062 E11.28809
G1 X176.628 Y187.555 E11.30317
G1 X172.872 Y183.799 E11.46139
G1 X172.872 Y183.293 E11.47648
G1 X176.628 Y187.049 E11.63469
G1 X176.628 Y186.542 E11.64978
G1 X172.872 Y182.786 E11.80800
G1 X172.872 Y182.280 E11.82308
G1 X176.628 Y186.036 E11.98130
G1 X176.628 Y185.529 E11.99639
G1 X172.872 Y181.773 E12.15460
G1 X172.872 Y181.266 E12.16969
G1 X176.628 Y185.023 E12.32791
G1 X176.628 Y184.516 E12.34300
G1 X172.872 Y180.760 E12.50121
G1 X172.872 Y180.253 E12.51630
G1 X176.628 Y184.010 E12.67452
G1 X176.628 Y183.503 E12.68960
G1 X172.872 Y179.747 E12.84782
G1 X172.872 Y179.240 E12.86291
G1 X176.628 Y182.996 E13.02112
G1 X176.628 Y182.490 E13.03621
G1 X172.872 Y178.734 E13.19443
G1 X172.872 Y178.227 E13.20951
G1 X176.628 Y181.983 E13.36773
G1 X176.628 Y181.477 E13.38282
G1 X172.872 Y177.720 E13.54103
G1 X172.872 Y177.214 E13.55612
G1 X176.628 Y180.970 E13.71434
G1 X176.628 Y180.464 E13.72943
G1 X172.872 Y176.707 E13.88764
G1 X172.872 Y176.201 E13.90273
G1 X176.628 Y179.957 E14.06095
G1 X176.628 Y179.450 E14.07603
G1 X172.872 Y175.694 E14.23425
G1 X172.872 Y175.188 E14.24934
G1 X176.628 Y178.944 E14.40755
G1 X176.628 Y178.437 E14.42264
G1 X172.872 Y174.681 E14.58086
G1 X172.872 Y174.175 E14.59594
G1 X176.628 Y177.931 E14.75416
G1 X176.628 Y177.424 E14.76925
G1 X172.872 Y173.668 E14.92746
G1 X172.872 Y173.161 E14.94255
G1 X176.628 Y176.918 E15.10077
G1 X176.628 Y176.411 E15.11586
G1 X172.872 Y172.655 E15.27407
G1 X172.872 Y172.148 E15.28916
G1 X176.628 Y175.904 E15.44738
G1 X176.628 Y175.398 E15.46246
G1 X172.872 Y171.642 E15.62068
G1 X172.872 Y171.135 E15.63577
G1 X176.628 Y174.891 E15.79398
G1 X176.628 Y174.385 E15.80907
G1 X172.872 Y170.629 E15.96729
G1 X172.872 Y170.122 E15.98238
G1 X176.628 Y173.878 E16.14059
G1 X176.628 Y173.372 E16.15568
G1 X172.872 Y169.615 E16.31389
G1 X172.872 Y169.109 E16.32898
G1 X176.628 Y172.865 E16.48720
G1 X176.628 Y172.358 E16.50229
G1 X172.872 Y168.602 E16.66050
G1 X172.872 Y168.096 E16.67559
G1 X176.628 Y171.852 E16.83381
G1 X176.628 Y171.345 E16.84889
G1 X172.872 Y167.589 E17.00711
G1 X172.872 Y167.083 E17.02220
G1 X176.628 Y170.839 E17.18041
G1 X176.628 Y170.332 E17.19550
G1 X172.872 Y166.576 E17.35372
G1 X172.872 Y166.069 E17.36881
G1 X176.628 Y169.826 E17.52702
G1 X176.628 Y169.319 E17.54211
G1 X172.872 Y165.563 E17.70033
G1 X172.872 Y165.056 E17.71541
G1 X176.628 Y168.813 E17.87363
G1 X176.628 Y168.306 E17.88872
G1 X172.872 Y164.550 E18.04693
G1 X172.872 Y164.043 E18.06202
G1 X176.628 Y167.799 E18.22024
G1 X176.628 Y167.293 E18.23532
G1 X172.872 Y163.537 E18.39354
G1 X172.872 Y163.030 E18.40863
G1 X176.628 Y166.786 E18.56684
G1 X176.628 Y166.280 E18.58193
G1 X172.872 Y162.523 E18.74015
G1 X172.872 Y162.017 E18.75524
G1 X176.628 Y165.773 E18.91345
G1 X176.628 Y165.267 E18.92854
G1 X172.872 Y161.510 E19.08676
G1 X172.872 Y161.004 E19.10184
G1 X176.628 Y164.760 E19.26006
G1 X176.628 Y164.253 E19.27515
G1 X172.872 Y160.497 E19.43336
G1 X172.872 Y159.991 E19.44845
G1 X176.628 Y163.747 E19.60667
G1 X176.628 Y163.240 E19.62176
G1 X172.872 Y159.484 E19.77997
G1 X172.872 Y158.977 E19.79506
G1 X176.628 Y162.734 E19.95328
G1 X176.628 Y162.227 E19.96836
G1 X172.872 Y158.471 E20.12658
G1 X172.872 Y157.964 E20.14167
G1 X176.628 Y161.721 E20.29988
G1 X176.628 Y161.214 E20.31497
G1 X172.872 Y157.458 E20.47319
G1 X172.872 Y156.951 E20.48827
G1 X176.628 Y160.707 E20.64649
G1 X176.628 Y160.201 E20.66158
G1 X172.872 Y156.445 E20.81979
G1 X172.872 Y155.938 E20.83488
G1 X176.628 Y159.694 E20.99310
G1 X176.628 Y159.188 E21.00819
G1 X172.872 Y155.432 E21.16640
G1 X172.872 Y154.925 E21.18149
G1 X176.628 Y158.681 E21.33971
G1 X176.628 Y158.175 E21.35479
G1 X172.872 Y154.418 E21.51301
G1 X172.872 Y153.912 E21.52810
G1 X176.628 Y157.668 E21.68631
G1 X176.628 Y157.161 E21.70140
G1 X172.872 Y153.405 E21.85962
G1 X172.872 Y152.899 E21.87470
G1 X176.628 Y156.655 E22.03292
G1 X176.628 Y156.148 E22.04801
G1 X172.872 Y152.392 E22.20622
G1 X172.872 Y151.886 E22.22131
G1 X176.628 Y155.642 E22.37953
G1 X176.628 Y155.135 E22.39462
G1 X172.872 Y151.379 E22.55283
G1 X172.872 Y150.872 E22.56792
G1 X176.628 Y154.629 E22.72614
G1 X176.628 Y154.122 E22.74122
G1 X172.872 Y150.366 E22.89944
G1 X172.872 Y149.859 E22.91453
G1 X176.628 Y153.615 E23.07274
G1 X176.628 Y153.109 E23.08783
G1 X172.872 Y149.353 E23.24605
G1 X172.872 Y148.846 E23.26114
G1 X176.628 Y152.602 E23.41935
G1 X176.628 Y152.096 E23.43444
G1 X172.872 Y148.340 E23.59266
G1 X172.872 Y147.833 E23.60774
G1 X176.917 Y151.878 E23.77813
G1 X177.424 Y151.878 E23.79321
G1 X172.872 Y147.326 E23.98494
G1 X172.872 Y146.820 E24.00002
G1 X177.930 Y151.878 E24.21308
G1 X178.437 Y151.878 E24.22817
G1 X172.872 Y146.313 E24.46257
G1 X172.872 Y145.807 E24.47765
G1 X178.943 Y151.878 E24.73339
G1 X179.450 Y151.878 E24.74848
G1 X172.872 Y145.300 E25.02555
G1 X172.872 Y144.794 E25.04063
G1 X179.956 Y151.878 E25.33904
G1 X180.463 Y151.878 E25.35413
G1 X172.872 Y144.287 E25.67387
G1 X172.872 Y143.780 E25.68896
G1 X180.970 Y151.878 E26.03004
G1 X181.476 Y151.878 E26.04513
G1 X172.872 Y143.274 E26.40755
G1 X172.872 Y142.767 E26.42264
G1 X181.983 Y151.878 E26.80640
G1 X182.489 Y151.878 E26.82148
G1 X172.872 Y142.261 E27.22658
G1 X172.872 Y141.754 E27.24166
G1 X182.628 Y151.510 E27.65261
G1 X182.628 Y151.004 E27.66770
G1 X172.872 Y141.248 E28.07864
G1 X172.872 Y140.741 E28.09373
G1 X182.628 Y150.497 E28.50467
G1 X182.628 Y149.991 E28.51976
G1 X172.872 Y140.234 E28.93070
G1 X172.872 Y139.728 E28.94579
G1 X182.628 Y149.484 E29.35673
G1 X182.628 Y148.978 E29.37182
G1 X172.872 Y139.221 E29.78276
