; generated by Slic3r 1.2.9 on 2018-11-18 at 15:34:54

; external perimeters extrusion width = 0.40mm
; perimeters extrusion width = 0.67mm
; infill extrusion width = 0.67mm
; solid infill extrusion width = 0.67mm
; top infill extrusion width = 0.67mm

M107
M104 S200 ; set temperature
G28 ; home all axes
M420 S1 ; encendemos la malla
G1 Z5 F5000 ; lift nozzle
G1 E8 ; forzamos la salida de filamento 8mm

M109 S200 ; wait for temperature to be reached
G21 ; set units to millimeters
G90 ; use absolute coordinates
M82 ; use absolute distances for extrusion
G92 E0
G1 Z0.200 F6000.000
G1 E-2.00000 F4800.00000
G92 E0
G1 X85.821 Y89.530 F6000.000
G1 E2.00000 F4800.00000
G1 X88.063 Y88.453 E2.07386 F1800.000
G1 X90.269 Y88.135 E2.14002
G1 X108.070 Y88.135 E2.66857
G1 X108.809 Y88.170 E2.69053
G1 X110.793 Y88.359 E2.74969 F1800.000
G1 X112.243 Y88.638 E2.79356
G1 X114.156 Y89.198 E2.85273
G1 X115.527 Y89.746 E2.89659
G1 X117.299 Y90.658 E2.95575
G1 X118.543 Y91.455 E2.99961
G1 X120.407 Y92.929 E3.07017
G1 X264.833 Y218.199 E8.74666
G1 X266.427 Y220.108 E8.82052
G1 X267.338 Y222.423 E8.89438
G1 X267.517 Y224.080 E8.94387
G1 X267.517 Y254.080 E9.83461
G1 X267.119 Y256.536 E9.90847
G1 X265.968 Y258.741 E9.98233
G1 X264.179 Y260.470 E10.05619
G1 X261.937 Y261.547 E10.13005
G1 X259.731 Y261.865 E10.19621
G1 X134.731 Y261.865 E13.90762
G1 X132.276 Y261.468 E13.98149
G1 X130.071 Y260.316 E14.05535
G1 X128.342 Y258.528 E14.12921
G1 X127.415 Y256.743 E14.18892
G1 X82.953 Y134.583 E18.04879
G1 X82.483 Y131.920 E18.12907
G1 X82.483 Y95.920 E19.19795
G1 X82.881 Y93.464 E19.27181
G1 X84.032 Y91.259 E19.34567
G1 X85.778 Y89.572 E19.41775
G1 X86.079 Y89.808 F6000.000
G1 X86.166 Y89.728 E19.42126 F1800.000
G1 X88.383 Y88.735 E19.49339
G1 X90.269 Y88.492 E19.54984
G1 X108.070 Y88.492 E20.07839
G1 X108.775 Y88.525 E20.09934
G1 X110.759 Y88.714 E20.15851 F1800.000
G1 X112.143 Y88.981 E20.20036
G1 X114.055 Y89.541 E20.25953
G1 X115.364 Y90.064 E20.30137
G1 X117.136 Y90.975 E20.36054
G1 X118.323 Y91.736 E20.40239
G1 X120.173 Y93.199 E20.47243
G1 X264.599 Y218.468 E26.14891
G1 X266.149 Y220.339 E26.22105
G1 X267.013 Y222.610 E26.29318
G1 X267.160 Y224.080 E26.33705
G1 X267.160 Y254.080 E27.22779
G1 X266.762 Y256.477 E27.29993
G1 X265.613 Y258.617 E27.37206
G1 X263.834 Y260.272 E27.44420
G1 X261.617 Y261.265 E27.51634
G1 X259.731 Y261.508 E27.57278
G1 X134.731 Y261.508 E31.28419
G1 X132.334 Y261.111 E31.35633
G1 X130.194 Y259.962 E31.42847
G1 X128.539 Y258.183 E31.50060
G1 X127.751 Y256.621 E31.55256
G1 X83.288 Y134.461 E35.41243
G1 X82.840 Y131.920 E35.48902
G1 X82.840 Y95.920 E36.55791
G1 X83.238 Y93.523 E36.63005
G1 X84.387 Y91.383 E36.70218
G1 X86.035 Y89.849 E36.76904
G1 X86.331 Y90.090 F6000.000
G1 X86.509 Y89.931 E36.77613 F1800.000
G1 X88.699 Y89.025 E36.84650
G1 X90.269 Y88.849 E36.89338
G1 X108.070 Y88.849 E37.42193
G1 X108.741 Y88.881 E37.44188
G1 X110.725 Y89.070 E37.50104 F1800.000
G1 X112.042 Y89.323 E37.54088
G1 X113.955 Y89.884 E37.60005
G1 X115.201 Y90.381 E37.63989
G1 X116.973 Y91.293 E37.69905
G1 X118.102 Y92.017 E37.73889
G1 X119.939 Y93.469 E37.80841
G1 X264.365 Y218.738 E43.48489
G1 X265.869 Y220.569 E43.55526
G1 X266.685 Y222.795 E43.62563
G1 X266.803 Y224.080 E43.66396
G1 X266.803 Y254.080 E44.55469
G1 X266.405 Y256.417 E44.62506
G1 X265.258 Y258.491 E44.69543
G1 X263.491 Y260.069 E44.76580
G1 X261.301 Y260.975 E44.83617
G1 X259.731 Y261.151 E44.88306
G1 X134.731 Y261.151 E48.59447
G1 X132.395 Y260.754 E48.66484
G1 X130.321 Y259.607 E48.73521
G1 X128.742 Y257.839 E48.80558
G1 X128.087 Y256.499 E48.84989
G1 X83.624 Y134.338 E52.70976
G1 X83.197 Y131.920 E52.78268
G1 X83.197 Y95.920 E53.85156
G1 X83.595 Y93.583 E53.92193
G1 X84.742 Y91.509 E53.99230
G1 X86.286 Y90.130 E54.05380
G1 X86.576 Y90.376 F6000.000
G1 X86.852 Y90.140 E54.06457 F1800.000
G1 X89.012 Y89.325 E54.13313
G1 X90.269 Y89.206 E54.17062
G1 X108.070 Y89.206 E54.69917
G1 X108.707 Y89.236 E54.71811
G1 X110.691 Y89.425 E54.77727 F1800.000
G1 X111.942 Y89.666 E54.81510
G1 X113.854 Y90.226 E54.87427
G1 X115.037 Y90.699 E54.91209
G1 X116.809 Y91.610 E54.97126
G1 X117.882 Y92.298 E55.00909
G1 X119.705 Y93.739 E55.07808
G1 X264.131 Y219.008 E60.75456
G1 X265.589 Y220.798 E60.82312
G1 X266.445 Y224.080 E60.92382
G1 X266.445 Y254.080 E61.81456
G1 X266.048 Y256.355 E61.88312
G1 X264.904 Y258.360 E61.95168
G1 X263.148 Y259.860 E62.02023
G1 X260.988 Y260.675 E62.08879
G1 X259.731 Y260.794 E62.12628
G1 X134.731 Y260.794 E65.83769
G1 X132.457 Y260.397 E65.90625
G1 X130.451 Y259.253 E65.97480
G1 X128.952 Y257.497 E66.04336
G1 X128.422 Y256.376 E66.08017
G1 X83.959 Y134.216 E69.94004
G1 X83.555 Y131.920 E70.00927
G1 X83.555 Y95.920 E71.07816
G1 X83.952 Y93.645 E71.14671
G1 X85.096 Y91.640 E71.21527
G1 X86.530 Y90.415 E71.27127
G1 X86.812 Y90.666 F6000.000
G1 X87.192 Y90.357 E71.28583 F1800.000
G1 X90.269 Y89.563 E71.38017
G1 X108.070 Y89.563 E71.90872
G1 X108.673 Y89.592 E71.92665
G1 X110.657 Y89.781 E71.98581 F1800.000
G1 X111.842 Y90.009 E72.02163
G1 X113.754 Y90.569 E72.08080
G1 X114.874 Y91.016 E72.11661
G1 X116.646 Y91.928 E72.17577
G1 X117.661 Y92.579 E72.21159
G1 X119.471 Y94.008 E72.28006
G1 X263.897 Y219.278 E77.95654
G1 X265.307 Y221.026 E78.02324
G1 X266.088 Y224.080 E78.11683
G1 X266.088 Y254.080 E79.00757
G1 X265.692 Y256.291 E79.07427
G1 X264.550 Y258.226 E79.14096
G1 X262.808 Y259.643 E79.20766
G1 X259.731 Y260.437 E79.30199
G1 X134.731 Y260.437 E83.01341
G1 X132.520 Y260.040 E83.08010
G1 X130.585 Y258.899 E83.14679
G1 X128.758 Y256.254 E83.24226
G1 X84.295 Y134.094 E87.10212
G1 X83.912 Y131.920 E87.16768
G1 X83.912 Y95.920 E88.23656
G1 X84.308 Y93.709 E88.30326
G1 X85.449 Y91.774 E88.36995
G1 X86.765 Y90.704 E88.42030
G1 E86.42030 F4800.00000
G92 E0
G1 X240.898 Y235.684 F6000.000
G1 E2.00000 F4800.00000
G1 X241.822 Y234.866 E2.03665 F1800.000
G1 X242.915 Y234.292 E2.07331
G1 X244.114 Y233.996 E2.10996
G1 X245.349 Y233.996 E2.14662 F1800.000
G1 X246.547 Y234.292 E2.18327
G1 X247.640 Y234.866 E2.21992
G1 X248.564 Y235.684 E2.25658
G1 X249.259 Y236.691 E2.29290
G1 X249.703 Y237.853 E2.32985
G1 X249.852 Y239.080 E2.36653
G1 X249.703 Y240.306 E2.40319
G1 X249.266 Y241.460 E2.43984
G1 X248.564 Y242.476 E2.47649
G1 X247.640 Y243.294 E2.51315
G1 X246.547 Y243.868 E2.54980
G1 X245.349 Y244.164 E2.58646
G1 X244.114 Y244.164 E2.62311
G1 X242.915 Y243.868 E2.65977
G1 X241.822 Y243.294 E2.69642
G1 X240.898 Y242.476 E2.73307
G1 X240.203 Y241.469 E2.76939
G1 X239.759 Y240.307 E2.80634
G1 X239.610 Y239.080 E2.84303
G1 X239.759 Y237.855 E2.87968
G1 X240.197 Y236.700 E2.91634
G1 X240.864 Y235.734 E2.95121
G1 X241.168 Y235.923 F6000.000
G1 X242.027 Y235.162 E2.98529 F1800.000
G1 X243.043 Y234.628 E3.01937
G1 X244.157 Y234.354 E3.05345
G1 X245.305 Y234.354 E3.08753 F1800.000
G1 X246.420 Y234.628 E3.12161
G1 X247.436 Y235.162 E3.15568
G1 X248.295 Y235.923 E3.18976
G1 X248.941 Y236.859 E3.22352
G1 X249.354 Y237.940 E3.25789
G1 X249.492 Y239.080 E3.29199
G1 X249.354 Y240.219 E3.32607
G1 X248.947 Y241.293 E3.36015
G1 X248.295 Y242.237 E3.39423
G1 X247.436 Y242.998 E3.42831
G1 X246.420 Y243.532 E3.46239
G1 X245.305 Y243.806 E3.49647
G1 X244.157 Y243.806 E3.53055
G1 X243.043 Y243.532 E3.56463
G1 X242.027 Y242.998 E3.59871
G1 X241.168 Y242.237 E3.63279
G1 X240.522 Y241.302 E3.66655
G1 X240.109 Y240.220 E3.70092
G1 X239.970 Y239.080 E3.73502
G1 X240.108 Y237.941 E3.76910
G1 X240.515 Y236.867 E3.80318
G1 X241.133 Y235.972 E3.83547
G1 X241.437 Y236.161 F6000.000
G1 X242.231 Y235.458 E3.86698 F1800.000
G1 X243.171 Y234.965 E3.89848
G1 X244.201 Y234.711 E3.92999
G1 X245.262 Y234.711 E3.96149 F1800.000
G1 X246.292 Y234.965 E3.99300
G1 X247.232 Y235.458 E4.02450
G1 X248.026 Y236.161 E4.05601
G1 X248.623 Y237.026 E4.08720
G1 X249.005 Y238.026 E4.11900
G1 X249.133 Y239.080 E4.15051
G1 X249.005 Y240.133 E4.18202
G1 X248.629 Y241.125 E4.21352
G1 X248.026 Y241.999 E4.24503
G1 X247.232 Y242.702 E4.27653
G1 X246.292 Y243.195 E4.30804
G1 X245.262 Y243.449 E4.33954
G1 X244.201 Y243.449 E4.37105
G1 X243.171 Y243.195 E4.40255
G1 X242.231 Y242.702 E4.43406
G1 X241.437 Y241.999 E4.46556
G1 X240.840 Y241.134 E4.49676
G1 X240.458 Y240.134 E4.52855
G1 X240.330 Y239.080 E4.56007
G1 X240.458 Y238.027 E4.59157
G1 X240.834 Y237.035 E4.62308
G1 X241.403 Y236.211 E4.65280
G1 X241.325 Y235.777 F6000.000
G1 X149.352 Y239.080 F6000.000
G1 X149.203 Y240.306 E4.68945 F1800.000
G1 X148.766 Y241.460 E4.72611
G1 X148.064 Y242.476 E4.76276
G1 X147.140 Y243.294 E4.79942
G1 X146.047 Y243.868 E4.83607
G1 X144.849 Y244.164 E4.87272
G1 X143.614 Y244.164 E4.90938
G1 X142.415 Y243.868 E4.94603
G1 X141.322 Y243.294 E4.98269
G1 X140.398 Y242.476 E5.01934
G1 X139.703 Y241.469 E5.05566
G1 X139.259 Y240.307 E5.09261
G1 X139.110 Y239.080 E5.12929
G1 X139.259 Y237.855 E5.16595
G1 X139.697 Y236.700 E5.20260
G1 X140.398 Y235.684 E5.23926
G1 X141.322 Y234.866 E5.27591
G1 X142.415 Y234.292 E5.31256
G1 X143.614 Y233.996 E5.34922
G1 X144.849 Y233.996 E5.38587 F1800.000
G1 X146.047 Y234.292 E5.42253
G1 X147.140 Y234.866 E5.45918
G1 X148.064 Y235.684 E5.49584
G1 X148.766 Y236.700 E5.53249
G1 X149.203 Y237.855 E5.56914
G1 X149.345 Y239.020 E5.60402
G1 X148.992 Y239.080 F6000.000
G1 X148.854 Y240.219 E5.63810 F1800.000
G1 X148.447 Y241.293 E5.67217
G1 X147.795 Y242.237 E5.70625
G1 X146.936 Y242.998 E5.74033
G1 X145.920 Y243.532 E5.77441
G1 X144.805 Y243.806 E5.80849
G1 X143.657 Y243.806 E5.84257
G1 X142.543 Y243.532 E5.87665
G1 X141.527 Y242.998 E5.91073
G1 X140.668 Y242.237 E5.94481
G1 X140.022 Y241.302 E5.97857
G1 X139.609 Y240.220 E6.01294
G1 X139.470 Y239.080 E6.04704
G1 X139.608 Y237.941 E6.08112
G1 X140.015 Y236.867 E6.11520
G1 X140.668 Y235.923 E6.14928
G1 X141.527 Y235.162 E6.18336
G1 X142.543 Y234.628 E6.21744
G1 X143.657 Y234.354 E6.25152
G1 X144.805 Y234.354 E6.28560 F1800.000
G1 X145.920 Y234.628 E6.31968
G1 X146.936 Y235.162 E6.35375
G1 X147.795 Y235.923 E6.38783
G1 X148.447 Y236.867 E6.42191
G1 X148.854 Y237.941 E6.45599
G1 X148.985 Y239.020 E6.48829
G1 X148.633 Y239.080 F6000.000
G1 X148.505 Y240.133 E6.51980 F1800.000
G1 X148.129 Y241.125 E6.55130
G1 X147.526 Y241.999 E6.58280
G1 X146.732 Y242.702 E6.61431
G1 X145.792 Y243.195 E6.64581
G1 X144.762 Y243.449 E6.67732
G1 X143.701 Y243.449 E6.70882
G1 X142.671 Y243.195 E6.74033
G1 X141.731 Y242.702 E6.77183
G1 X140.937 Y241.999 E6.80334
G1 X140.340 Y241.134 E6.83454
G1 X139.958 Y240.134 E6.86633
G1 X139.830 Y239.080 E6.89784
G1 X139.958 Y238.027 E6.92935
G1 X140.334 Y237.035 E6.96085
G1 X140.937 Y236.161 E6.99236
G1 X141.731 Y235.458 E7.02386
G1 X142.671 Y234.965 E7.05537
G1 X143.701 Y234.711 E7.08687
G1 X144.762 Y234.711 E7.11838 F1800.000
G1 X145.792 Y234.965 E7.14988
G1 X146.732 Y235.458 E7.18139
G1 X147.526 Y236.161 E7.21289
G1 X148.129 Y237.035 E7.24440
G1 X148.505 Y238.027 E7.27590
G1 X148.626 Y239.020 E7.30562
G1 X148.971 Y239.294 F6000.000
G1 X111.183 Y124.834 F6000.000
G1 X111.183 Y103.006 E7.95373 F1800.000
G1 X91.183 Y103.006 E8.54756
G1 X91.183 Y96.834 E8.73081
G1 X108.027 Y96.834 E9.23092
G1 X109.861 Y97.009 E9.28564
G1 X111.626 Y97.523 E9.34021
G1 X113.242 Y98.354 E9.39418
G1 X114.673 Y99.476 E9.44817
G1 X115.866 Y100.849 E9.50216
G1 X116.778 Y102.422 E9.55615
G1 X117.391 Y104.180 E9.61143
G1 X144.537 Y214.892 E12.99599
G1 X157.416 Y224.994 E13.48197
G1 X258.817 Y224.994 E16.49272
G1 X258.817 Y253.166 E17.32917
G1 X135.371 Y253.166 E20.99443
G1 X91.183 Y131.759 E24.83051
G1 X91.183 Y124.834 E25.03611
G1 X111.123 Y124.834 E25.62816
G1 X110.826 Y124.477 F6000.000
G1 X110.826 Y103.363 E26.25506 F1800.000
G1 X90.826 Y103.363 E26.84889
G1 X90.826 Y96.477 E27.05334
G1 X108.044 Y96.477 E27.56456
G1 X109.929 Y96.657 E27.62079
G1 X111.759 Y97.189 E27.67738
G1 X113.436 Y98.052 E27.73337
G1 X114.920 Y99.216 E27.78938
G1 X116.158 Y100.640 E27.84540
G1 X117.104 Y102.272 E27.90141
G1 X117.734 Y104.078 E27.95821
G1 X144.855 Y214.687 E31.33961
G1 X157.539 Y224.637 E31.81826
G1 X259.174 Y224.637 E34.83595
G1 X259.174 Y253.523 E35.69361
G1 X135.121 Y253.523 E39.37690
G1 X90.826 Y131.822 E43.22227
G1 X90.826 Y124.477 E43.44034
G1 X110.766 Y124.477 E44.03238
G1 X110.469 Y124.120 F6000.000
G1 X110.469 Y103.720 E44.63809 F1800.000
G1 X90.469 Y103.720 E45.23191
G1 X90.469 Y96.120 E45.45757
G1 X108.061 Y96.120 E45.97989
G1 X109.996 Y96.304 E46.03762
G1 X111.892 Y96.856 E46.09624
G1 X113.629 Y97.750 E46.15426
G1 X115.167 Y98.956 E46.21229
G1 X116.450 Y100.432 E46.27033
G1 X117.430 Y102.122 E46.32836
G1 X118.077 Y103.977 E46.38667
G1 X145.172 Y214.482 E49.76492
G1 X157.662 Y224.280 E50.23625
G1 X259.531 Y224.280 E53.26087
G1 X259.531 Y253.880 E54.13973
G1 X134.871 Y253.880 E57.84105
G1 X90.469 Y131.885 E61.69571
G1 X90.469 Y124.120 E61.92626
G1 X110.409 Y124.120 E62.51830
G1 X110.869 Y124.120 F6000.000
G1 X91.547 Y132.064 F6000.000
G1 X134.533 Y175.050 E64.32338 F1800.000
G1 X134.369 Y174.381 E64.34384
G1 X91.391 Y131.402 E66.14861
G1 X91.391 Y130.897 E66.16361
G1 X134.205 Y173.712 E67.96149
G1 X134.041 Y173.042 E67.98194
G1 X91.391 Y130.392 E69.77294
G1 X91.391 Y129.887 E69.78793
G1 X133.877 Y172.373 E71.57204
G1 X133.713 Y171.704 E71.59249
G1 X91.391 Y129.382 E73.36971
G1 X91.391 Y128.877 E73.38471
G1 X133.549 Y171.035 E75.15503
G1 X133.385 Y170.366 E75.17549
G1 X91.391 Y128.372 E76.93893
G1 X91.391 Y127.867 E76.95392
G1 X133.221 Y169.697 E78.71047
G1 X133.057 Y169.028 E78.73093
G1 X91.391 Y127.362 E80.48059
G1 X91.391 Y126.857 E80.49558
G1 X132.893 Y168.359 E82.23836
G1 X132.729 Y167.690 E82.25881
G1 X91.391 Y126.352 E83.99470
G1 X91.391 Y125.847 E84.00969
G1 X132.565 Y167.021 E85.73869
G1 X132.401 Y166.352 E85.75914
G1 X91.391 Y125.342 E87.48125
G1 X91.596 Y125.042 E87.49203
G1 X132.237 Y165.683 E89.19863
G1 X132.073 Y165.014 E89.21909
G1 X92.101 Y125.042 E90.89759
G1 X92.606 Y125.042 E90.91259
G1 X131.909 Y164.345 E92.56300
G1 X131.744 Y163.676 E92.58345
G1 X93.111 Y125.042 E94.20577
G1 X93.616 Y125.042 E94.22076
G1 X131.580 Y163.006 E95.81498
G1 X131.416 Y162.337 E95.83543
G1 X94.121 Y125.042 E97.40155
G1 X94.626 Y125.042 E97.41655
G1 X131.252 Y161.668 E98.95458
G1 X131.088 Y160.999 E98.97503
G1 X95.131 Y125.042 E100.48496
G1 X95.636 Y125.042 E100.49996
G1 X130.924 Y160.330 E101.98179
G1 X130.760 Y159.661 E102.00225
G1 X96.141 Y125.042 E103.45599
G1 X96.646 Y125.042 E103.47098
G1 X130.596 Y158.992 E104.89663
G1 X130.432 Y158.323 E104.91708
G1 X97.151 Y125.042 E106.31463
G1 X97.656 Y125.042 E106.32962
G1 X130.268 Y157.654 E107.69908
G1 X130.104 Y156.985 E107.71953
G1 X98.161 Y125.042 E109.06089
G1 X98.666 Y125.042 E109.07588
G1 X129.940 Y156.316 E110.38914
G1 X129.776 Y155.647 E110.40960
G1 X99.171 Y125.042 E111.69476
G1 X99.676 Y125.042 E111.70976
G1 X129.612 Y154.978 E112.96683
G1 X129.448 Y154.309 E112.98728
G1 X100.181 Y125.042 E114.21626
G1 X100.686 Y125.042 E114.23125
G1 X129.284 Y153.640 E115.43213
G1 X129.120 Y152.970 E115.45259
G1 X101.191 Y125.042 E116.62537
G1 X101.696 Y125.042 E116.64037
G1 X128.956 Y152.301 E117.78505
G1 X128.792 Y151.632 E117.80551
G1 X102.201 Y125.042 E118.92210
G1 X102.706 Y125.042 E118.93709
G1 X128.627 Y150.963 E120.02559
G1 X128.463 Y150.294 E120.04605
G1 X103.211 Y125.042 E121.10645
G1 X103.716 Y125.042 E121.12144
G1 X128.299 Y149.625 E122.15375
G1 X128.135 Y148.956 E122.17420
G1 X104.221 Y125.042 E123.17841
G1 X104.726 Y125.042 E123.19340
G1 X127.971 Y148.287 E124.16952
G1 X127.807 Y147.618 E124.18997
G1 X105.231 Y125.042 E125.13799
G1 X105.736 Y125.042 E125.15299
G1 X127.643 Y146.949 E126.07291
G1 X127.479 Y146.280 E126.09336
G1 X106.241 Y125.042 E126.98519
G1 X106.746 Y125.042 E127.00019
G1 X127.315 Y145.611 E127.86392
G1 X127.151 Y144.942 E127.88437
G1 X107.251 Y125.042 E128.72001
G1 X107.756 Y125.042 E128.73500
G1 X126.987 Y144.273 E129.54254
G1 X126.823 Y143.604 E129.56300
G1 X108.261 Y125.042 E130.34244
G1 X108.766 Y125.042 E130.35744
G1 X126.659 Y142.934 E131.10878
G1 X126.495 Y142.265 E131.12924
G1 X109.271 Y125.042 E131.85249
G1 X109.776 Y125.042 E131.86749
G1 X126.331 Y141.596 E132.56264
G1 X126.167 Y140.927 E132.58310
G1 X110.281 Y125.042 E133.25016
G1 X110.786 Y125.042 E133.26515
G1 X126.003 Y140.258 E133.90412
